icons/notification-4-line.svg

<svg viewBox="0 0 24 24" fill="currentColor" xmlns="http://www.w3.org/2000/svg"><path d="M18 10C18 6.68629 15.3137 4 12 4C8.68629 4 6 6.68629 6 10V18H18V10ZM20 18.6667L20.4 19.2C20.5657 19.4209 20.5209 19.7343 20.3 19.9C20.2135 19.9649 20.1082 20 20 20H4C3.72386 20 3.5 19.7761 3.5 19.5C3.5 19.3918 3.53509 19.2865 3.6 19.2L4 18.6667V10C4 5.58172 7.58172 2 12 2C16.4183 2 20 5.58172 20 10V18.6667ZM9.5 21H14.5C14.5 22.3807 13.3807 23.5 12 23.5C10.6193 23.5 9.5 22.3807 9.5 21Z"/></svg>

<svg xmlns="http://www.w3.org/2000/svg" viewBox="0 0 24 24">
    <g>
        <path fill="none" d="M0 0h24v24H0z"/>
        <path d="M18 10a6 6 0 1 0-12 0v8h12v-8zm2 8.667l.4.533a.5.5 0 0 1-.4.8H4a.5.5 0 0 1-.4-.8l.4-.533V10a8 8 0 1 1 16 0v8.667zM9.5 21h5a2.5 2.5 0 1 1-5 0z"/>
    </g>
</svg>
